!!!OTL: Guten Abend (2-86) S. 253
!!!id: P0957
**kern
*clefG2
*k[]
*a:
{8e
8e
=1
4a
4b
=2
4cc
8b
8a
=3
4b}
4r
=4
{8cc
8dd
=5
4ee
4ee
=6
4ee
8dd
8cc
=7
8dd}
=8
{8cc
8b
8cc
=9
4dd
8dd
8dd
=10
4ee
8dd
8cc
=11
4b}
8r
=12
{8a
8a
8a
=13
8cc
8ee
8dd
8b
=14
8.cc
16a
8b
8a
=15
4.a}
8r
==
*-
!!!minrhy: 16
!!!meters: 2/4 3/4]  ZZ[4
!!!cut: Guten Abend (2-86) S. 253
!!!reg: Lothringen
!!!trd: PINCK, Louis: Verklingende Weisen, Bd 2, Metz 1928
!!!rhy1: X_X_  X__X__  X__X_X_  X__0_   (x2)
!!!rhy2: X_X_  X__X__  X__X_X_  X_
!!!key: P0957  16  A 2/4 3/4]  ZZ[4
!!!mod: PENTATONIK MOLL ?]  AMBITUS[8
!!!kad: 2421
!!!akz: 13b2_554_452_3b3b1_
!!!fot: 'a__b__c__d__
!!!for: 'a__av_b__c__
!!!fok: '/__/__^d_^__
!! PHRAS[AUFTAKTIG]
!!!fkt: Liebe, Krankheit, Tod?
!! LOTH VKL
!! PR[31] 2K[5] 2G[2] 3K[15] 3G[10] 4A[0] 4Ü[0] 5A[0] 6K[0] 6G[0]
!! 7K[0] 7G[0] 8A[0] MEHR[0] SI[32] ABS[59] SR[7] SP[25]
!! ST[12] 2k[5] 2g[12] 3k[15] 3g[5] 4d[0] 4ü[0] 5d[0] 6k[0] 6g[0]
!! 7k[0] 7g[0] 8d[0] mehr[0] si[37] dm[-5] sr[17] sp[20]
!! 1F[80] 2F[20] 3F[0] 4F[0] LF[0] 2P[0] 3P[0] 4P[0] TRI[0] DF[2] AB[60]
!! TF[0] U3K[0] U3[0] U4[0] U4Ü[0] U5[0] U6K[0] U6[0] U7K[0] U7[0]
!! N1[20] N2K[0] N2[10] N3K[0] N3[35] N4[10] N4Ü[0] N5[23] N6K[0] N6[2]
!!!n7k: 0] N7[0] O1[0] O2K[0] O2[0] O3K[0] O3[0] HÖ[0
